Numix-GalliumOS/16/status/user-busy.svg

<?xml version="1.0" encoding="UTF-8" standalone="no"?>
<svg
   xmlns:dc="http://purl.org/dc/elements/1.1/"
   xmlns:cc="http://creativecommons.org/ns#"
   xmlns:rdf="http://www.w3.org/1999/02/22-rdf-syntax-ns#"
   xmlns:svg="http://www.w3.org/2000/svg"
   xmlns="http://www.w3.org/2000/svg"
   xmlns:sodipodi="http://sodipodi.sourceforge.net/DTD/sodipodi-0.dtd"
   xmlns:inkscape="http://www.inkscape.org/namespaces/inkscape"
   width="16"
   viewBox="0 0 16 16"
   height="16"
   id="svg2"
   version="1.1"
   inkscape:version="0.91 r"
   sodipodi:docname="user-busy.svg">
  <metadata
     id="metadata18">
    <rdf:RDF>
      <cc:Work
         rdf:about="">
        <dc:format>image/svg+xml</dc:format>
        <dc:type
           rdf:resource="http://purl.org/dc/dcmitype/StillImage" />
      </cc:Work>
    </rdf:RDF>
  </metadata>
  <sodipodi:namedview
     pagecolor="#ffffff"
     bordercolor="#666666"
     borderopacity="1"
     objecttolerance="10"
     gridtolerance="10"
     guidetolerance="10"
     inkscape:pageopacity="0"
     inkscape:pageshadow="2"
     inkscape:window-width="1920"
     inkscape:window-height="1052"
     id="namedview16"
     showgrid="true"
     inkscape:zoom="51.22168"
     inkscape:cx="4.7689463"
     inkscape:cy="8"
     inkscape:window-x="0"
     inkscape:window-y="28"
     inkscape:window-maximized="1"
     inkscape:current-layer="svg2">
    <inkscape:grid
       type="xygrid"
       id="grid2995" />
  </sodipodi:namedview>
  <defs
     id="defs4" />
  <path
     style="fill:#fa5451;fill-opacity:1;stroke:none"
     d="M 8 0 C 3.581722 5.9211895e-16 0 3.1340067 0 7 C 2.3684758e-15 10.865993 3.581722 14 8 14 C 12.418278 14 16 10.865993 16 7 C 16 3.1340067 12.418278 -1.7763568e-15 8 0 z M 4 6 L 12 6 C 12.554 6 13 6.446 13 7 C 13 7.554 12.554 8 12 8 L 4 8 C 3.446 8 3 7.554 3 7 C 3 6.446 3.446 6 4 6 z "
     id="path2999" />
  <path
     style="fill:#fa5451;fill-opacity:1;stroke:none"
     d="M 8.3362186,12 14,16 13,10 z"
     id="path3001"
     inkscape:connector-curvature="0"
     sodipodi:nodetypes="cccc" />
</svg>

<svg xmlns="http://www.w3.org/2000/svg" viewBox="0 0 16 16">
 <path d="m 8 0 c -4.418 0 -8 3.134 -8 7 c 0 3.866 3.582 7 8 7 c 4.418 0 8 -3.134 8 -7 c 0 -3.866 -3.582 -7 -8 -7 z m -4 6 l 8 0 c 0.554 0 1 0.446 1 1 c 0 0.554 -0.446 1 -1 1 l -8 0 c -0.554 0 -1 -0.446 -1 -1 c 0 -0.554 0.446 -1 1 -1 z" style="fill:#fa5451;fill-opacity:1;stroke:none"/>
 <path d="m 8.336 12 5.664 4 -1 -6 z" style="fill:#fa5451;fill-opacity:1;stroke:none"/>
</svg>
